packages/shared/src/components/icons/Warning/outlined.svg

<svg width="24" height="24" viewBox="0 0 24 24" fill="none" xmlns="http://www.w3.org/2000/svg">
<g id="Filled=no">
<path id="Union" fill-rule="evenodd" clip-rule="evenodd" d="M9.65369 4.56567C10.7261 2.81144 13.2739 2.81144 14.3463 4.56567L21.1719 15.7311C22.2921 17.5636 20.9733 19.9155 18.8256 19.9155H5.17442C3.02668 19.9155 1.7079 17.5636 2.82811 15.7311L9.65369 4.56567ZM13.0665 5.34803C12.5791 4.55066 11.4209 4.55066 10.9335 5.34803L4.10791 16.5135C3.59873 17.3464 4.19818 18.4155 5.17442 18.4155H18.8256C19.8018 18.4155 20.4013 17.3464 19.8921 16.5135L13.0665 5.34803ZM11 9.16546C11 8.61317 11.4477 8.16546 12 8.16546C12.5523 8.16546 13 8.61317 13 9.16546V13.1655C13 13.7177 12.5523 14.1655 12 14.1655C11.4477 14.1655 11 13.7177 11 13.1655V9.16546ZM12 15.1655C11.4477 15.1655 11 15.6132 11 16.1655C11 16.7177 11.4477 17.1655 12 17.1655C12.5523 17.1655 13 16.7177 13 16.1655C13 15.6132 12.5523 15.1655 12 15.1655Z" />
</g>
</svg>

<svg xmlns="http://www.w3.org/2000/svg" width="24" height="24" fill="currentColor" viewBox="0 0 24 24">
  <path fill-rule="evenodd" d="M9.654 4.566c1.072-1.755 3.62-1.755 4.692 0l6.826 11.165c1.12 1.833-.199 4.185-2.346 4.185H5.174c-2.147 0-3.466-2.352-2.346-4.185L9.654 4.566Zm3.412.782a1.25 1.25 0 0 0-2.133 0L4.109 16.514a1.25 1.25 0 0 0 1.066 1.902h13.652a1.25 1.25 0 0 0 1.066-1.902L13.067 5.348ZM11 9.165a1 1 0 1 1 2 0v4a1 1 0 0 1-2 0v-4Zm1 6a1 1 0 1 0 0 2 1 1 0 0 0 0-2Z" clip-rule="evenodd"/>
</svg>
